dist/img/user-ico.svg

<svg width="18" height="17" viewBox="0 0 18 17" fill="none" xmlns="http://www.w3.org/2000/svg">
<path d="M9.0001 7.9C7.8501 7.9 6.9126 7.5375 6.1876 6.8125C5.4626 6.0875 5.1001 5.15 5.1001 4C5.1001 2.85 5.4626 1.9125 6.1876 1.1875C6.9126 0.4625 7.8501 0.1 9.0001 0.1C10.1501 0.1 11.0876 0.4625 11.8126 1.1875C12.5376 1.9125 12.9001 2.85 12.9001 4C12.9001 5.15 12.5376 6.0875 11.8126 6.8125C11.0876 7.5375 10.1501 7.9 9.0001 7.9ZM0.850098 16.225V13.725C0.850098 13.0583 1.01676 12.4875 1.3501 12.0125C1.68343 11.5375 2.10843 11.175 2.6251 10.925C3.75843 10.425 4.84176 10.05 5.8751 9.8C6.90843 9.55 7.9501 9.425 9.0001 9.425C10.0501 9.425 11.0876 9.55417 12.1126 9.8125C13.1376 10.0708 14.2168 10.4417 15.3501 10.925C15.8834 11.175 16.3168 11.5375 16.6501 12.0125C16.9834 12.4875 17.1501 13.0583 17.1501 13.725V16.225H0.850098Z" fill="#00E0FF"/>
</svg>

<svg width="18" height="17" fill="none" xmlns="http://www.w3.org/2000/svg"><path d="M9 7.9c-1.15 0-2.087-.363-2.812-1.088C5.463 6.088 5.1 5.15 5.1 4s.363-2.087 1.088-2.813C6.913.463 7.85.1 9 .1s2.088.363 2.813 1.087C12.538 1.913 12.9 2.85 12.9 4c0 1.15-.362 2.088-1.087 2.813C11.088 7.537 10.15 7.9 9 7.9ZM.85 16.225v-2.5c0-.667.167-1.237.5-1.713a3.28 3.28 0 0 1 1.275-1.087A19.38 19.38 0 0 1 5.875 9.8 13.244 13.244 0 0 1 9 9.425c1.05 0 2.088.13 3.113.387 1.025.259 2.104.63 3.237 1.113.533.25.967.612 1.3 1.087.333.476.5 1.046.5 1.713v2.5H.85Z" fill="#00E0FF"/></svg>
